X:38
T:Untitled Waltz.#53 JBs. 038
S:Jas.Blackshaw MS, 1837, N.Shropshire
Z:Tony Weatherall 2006
M:3/4
L:1/8
Q:3/4=50
A:North Shropshire
R:Waltz
K:C
(3ceg|câ€™2b2 (3ceg|a2g2 ce|g2f2 df|a2g2 eg|\
câ€™2b2 eg|a2g2 ce|gfefdB|c4:|!
|:ce|a2f2df|a2g2 ce|g2f2 df|a2g2 eg|\
câ€™2b2 eg|a2g2 ce|gfefdB|c4:|!
|: G2 |c>e g2 a2|g>f e2g2|f>e d2f2|e>d c2G2|\
c>e g2a2|g>f e2g2|f>e d2B2|c4:|!
ef|câ€™2b2a2|a2g2eg|g2f2 df|a2g2 eg|\
câ€™2b2a2|a2g2 eg|gfefdB|c4:|!
|:G2|G2e2d2|c2E2G2|F2D2B2|c2e2G2|\
G2e2d2|c2E2G2|F2D2B2|c4:|!
|:G2|F2D2B2|c2e2G2|F2D2B2|c2e2G2|\
G2e2d2|c2E2G2|F2D2B2|c4:|

